!!!!SEGMENT: pl-wn--mus-iii-65-947-cim--001-003_sowinski-wojciech--swiety-wojciech-meczennik-no-3-chrzciny.krn
!!!cenid: 18xx:3596
!!!COM: Sowiński, Wojciech
!!!COM-rismID: pe30008543
!!!CDT: ~1803-1880/03/05
!!!CNT:
!!!GTL: Święty Wojciech męczennik
!!!OTL: No. 3. Chrzciny
!!!OMV: 003
!!!PDT: 1877
!!!AGN:
!!!YEC: Copyright 2022 Narodowy Instytut Fryderyka Chopina (https://polishscores.org)
!!!YEM: License CC-BY-4.0 (https://creativecommons.org/licenses/by/4.0)
!!!SMS-siglum: PL-Wn
!!!SMS-shelfmark: Mus.III.65.947 Cim.
!!!SMS-shelfwork: 001-003 G
!!!SMS-variant:
!!!SMS-altvar:
!!!NIFC-rismSourceID:
!!!NIFC-rismChildID:
!!!NIFC-islandoraID: none
!!!URL-pdf-islandora:
!!!URL-scan: https://polona2.pl/item/swiety-wojciech-meczennik-oratorjo-w-trzech-czesciach-dzielo-66-spiew-z-fortepianem,MTkzODI1Mzc/242/#item @EN{Scan on Polona} @PL{Skany w portalu Polona}
!!!IIIF: https://polona2.pl/iiif/item/MTkzODI1Mzc/manifest.js
!!!ONB-nifc: UWAGA: oratorium zawiera w źródle 28 numerów podzielonych na 30 plików (rozdzielenie w No. 6 - osobno Recitativo oraz Aria matki i No. 10 - osobno Recitativo, arja i chór oraz Sen). Polecam widok miniatur na Polonie. Uwaga co do obsady: prosimy umieszczać tylko partie występujące w danym numerze (nie całą obsadę oratorium)
!!!AIN: 4 empty 1 piano 1 tenor
!!!key:
**kern	**kern	**dynam	**kern	**text	**dynam	**kern	**text	**dynam	**kern	**text	**dynam	**kern	**text	**dynam
*part6	*part5	*	*part4	*	*	*part3	*	*	*part2	*	*	*part1	*	*
*staff6	*staff5	*	*staff4	*	*	*staff3	*	*	*staff2	*	*	*staff1	*	*
*Iempty	*Ipiano	*	*Iempty	*	*	*Itenor	*	*	*Iempty	*	*	*Iempty	*	*
*	*I"Piano	*	*I"BAS.	*	*	*I"TENOR.	*	*	*I"Mo. SOPRAN	*	*	*I"SOPRAN.	*	*
*	*I'P-no	*	*I'B.	*	*	*I'T.	*	*	*I'Mezzo-S	*	*	*I'S.	*	*
*clefF4	*clefG2	*	*clefF4	*	*	*clefGv2	*	*	*clefG2	*	*	*clefG2	*	*
*k[f#c#]	*k[f#c#]	*	*k[f#c#]	*	*	*k[f#c#]	*	*	*k[f#c#]	*	*	*k[f#c#]	*	*
*D:	*D:	*	*D:	*	*	*D:	*	*	*D:	*	*	*D:	*	*
*M4/4	*M4/4	*	*M4/4	*	*	*M4/4	*	*	*M4/4	*	*	*M4/4	*	*
*met(c)	*met(c)	*	*met(c)	*	*	*met(c)	*	*	*met(c)	*	*	*met(c)	*	*
=1	=1	=1	=1	=1	=1	=1	=1	=1	=1	=1	=1	=1	=1	=1
*xywh-#33:182,927,1995,458	*xywh-#33:182,927,1995,458	*	*xywh-#33:249,838,1836,273	*	*	*xywh-#33:201,711,1931,241	*	*	*xywh-#33:179,545,1925,264	*	*	*xywh-#33:201,332,1957,353	*	*
!	!LO:TX:b:t=marcato	!	!	!	!	!	!	!	!	!	!	!	!	!
!	!LO:TX:a:t=All. vivace.	!	!	!	!	!	!	!	!	!	!	!LO:TX:a:t=All.vivace	!	!
4DD/	2d/ 2f# 2a 2dd	f	2D\	wi!	.	2d\	wi!	.	2f#/	wi!	.	2dd\	wi!	<
(8F#\L	.	.	.	.	.	.	.	.	.	.	.	.	.	.
8A\J)	.	.	.	.	.	.	.	.	.	.	.	.	.	.
4d^\	4dd\	.	2r	.	.	2r	.	.	2r	.	.	2r	.	[[
4c#^\	8ee\L	.	.	.	.	.	.	.	.	.	.	.	.	.
.	8ff#\J	.	.	.	.	.	.	.	.	.	.	.	.	.
=2	=2	=2	=2	=2	=2	=2	=2	=2	=2	=2	=2	=2	=2	=2
4B^\	4dd\ 4gg	.	1r	.	.	1r	.	.	1r	.	.	1r	.	.
4A^\	4cc#\ 4ff#	.	.	.	.	.	.	.	.	.	.	.	.	.
4G^\	4b\ 4ee	.	.	.	.	.	.	.	.	.	.	.	.	.
4F#^\	4a\ 4dd	.	.	.	.	.	.	.	.	.	.	.	.	.
=3	=3	=3	=3	=3	=3	=3	=3	=3	=3	=3	=3	=3	=3	=3
*^	*^	*	*	*	*	*	*	*	*	*	*	*	*	*
*xywh-#33:182,927,1995,458	*xywh-#33:182,927,1995,458	*xywh-#33:182,927,1995,458	*	*	*	*	*	*	*	*	*	*	*	*	*	*
2A^/	2E\	4aa/	2a\ 2cc#	f	1r	.	.	2r	.	.	2r	.	.	2r	.	.
.	.	4gg/	.	.	.	.	.	.	.	.	.	.	.	.	.	.
!	!	!	!	!LO:DY:a	!	!	!	!	!	!LO:DY:a	!	!	!LO:DY:a	!	!	!LO:DY:a
4d/	4D\	4ff#/	4dd\	mf	.	.	.	4d\	Na-	f	4f#/	Na-	f	4dd\	Na-	f
4c#/	4ryy	8ee/L	8ee\L	.	.	.	.	4c#\	-sze-	.	4a/	-sze-	.	8ee\	-sze-	.
.	.	8ff#/J	8ff#\J	.	.	.	.	.	.	.	.	.	.	8ff#\	-mu	.
*v	*v	*	*	*	*	*	*	*	*	*	*	*	*	*	*	*
=4	=4	=4	=4	=4	=4	=4	=4	=4	=4	=4	=4	=4	=4	=4	=4
*	*	*^	*	*	*	*	*	*	*	*	*	*	*	*	*
*xywh-#33:182,927,1995,458	*xywh-#33:182,927,1995,458	*xywh-#33:182,927,1995,458	*	*	*	*	*	*	*	*	*	*	*	*	*	*
4B\	4gg/	4g\	2dd\	.	2r	.	.	(4B\	-mu	.	2dd\	-mu	.	4gg\	bra-	.
4A\	4ff#/	4f#\	.	.	.	.	.	4A\)	.	.	.	.	.	4ff#\	-tu	.
4G\	4ee/	4e\	8b\L	.	4G\	świeć	.	(8B\L	bra-	.	2r	.	.	4ee\	świeć	.
!	!	!	!	!	!	!	!	!	!	!	!LO:LB:g=original	!	!	!	!	!
.	.	.	8cc#\J	.	.	.	.	8c#\J)	.	.	.	.	.	.	.	.
4F#\	4dd/	4d\	4ryy	.	4F#\	ju-	.	4d\	-tu	.	.	.	.	4dd\	ju-	.
!LO:LB:g=original	!LO:LB:g=original	!	!	!	!LO:LB:g=original	!	!	!LO:LB:g=original	!	!	!	!	!	!LO:LB:g=original	!	!
*	*	*v	*v	*	*	*	*	*	*	*	*	*	*	*	*	*
=5	=5	=5	=5	=5	=5	=5	=5	=5	=5	=5	=5	=5	=5	=5	=5
*xywh-#33:82,1890,2071,483	*xywh-#33:82,1890,2071,483	*xywh-#33:82,1890,2071,483	*	*xywh-#33:152,1719,1925,283	*	*	*xywh-#33:174,1598,1944,280	*	*	*xywh-#33:120,1445,1934,276	*	*	*xywh-#33:129,1282,1995,295	*	*
2E^\ 2A	2cc#/	4a\	f	2E\	-trzen-	.	(2A/	świeć	.	(4a/	bra-	.	2cc#\	-trzen-	.
.	.	4g\	.	.	.	.	.	.	.	4g/)	.	.	.	.	.
4D\ 4d	4dd/	2f#\	.	4D\	-ko	.	4d\)	.	.	2f#/	-tu	.	4dd\	-ko	.
4C#\ 4c#	8ee/L	.	.	4ryy	.	.	4c#\	ju-	.	.	.	.	(8ee\L	ju-	.
.	8ff#/J	.	.	.	.	.	.	.	.	.	.	.	8ff#\J)	.	.
=6	=6	=6	=6	=6	=6	=6	=6	=6	=6	=6	=6	=6	=6	=6	=6
*	*	*^	*	*	*	*	*	*	*	*	*	*	*	*	*
*xywh-#33:82,1890,2071,483	*xywh-#33:82,1890,2071,483	*xywh-#33:82,1890,2071,483	*	*	*	*	*	*	*	*	*	*	*	*	*	*
4BB\ 4B	4gg/	4g\	2dd\	.	4B\	świeć	.	2d\	-trzen-	.	4g/	świeć	.	4gg\	-trzen-	.
4AA\ 4A	4ff#/	4f#\	.	.	4A\	ju-	.	.	.	.	4f#/	ju-	.	4ff#\	-ko	.
!	!	!	!	!	!	!	!	!	!	!	!	!	!	!	!	!LO:DY:a
4GG\ 4G	4ee/	4e\	2a\	.	4G\	-trzen-	.	4c#\	-ko	.	[2a/	-trzen-	.	4ee\	świę-	<
4FF#\ 4F#	4dd/	4d\	.	.	4F#\	-ko	.	4d\	ju-	.	.	.	.	4dd\	-ta	[[
*	*	*v	*v	*	*	*	*	*	*	*	*	*	*	*	*	*
=7	=7	=7	=7	=7	=7	=7	=7	=7	=7	=7	=7	=7	=7	=7	=7
*	*	*	*	*	*	*	*	*	*	*	*	*	*^	*	*
*xywh-#33:82,1890,2071,483	*xywh-#33:82,1890,2071,483	*xywh-#33:82,1890,2071,483	*	*	*	*	*	*	*	*	*	*	*	*	*	*
2EE/ 2E	4aa/	2a\ 2cc#	.	2E\	świę-	.	(2A/	-trzen-	.	4a/]	.	.	4aa/	4cc#\	świeć	.
.	4gg/	.	.	.	.	.	.	.	.	4g/	-ko	.	4gg/	4cc#\	ju-	.
4DD/ 4D	4ff#m/	4dd\	.	4D\	-ta;	.	4d\)	.	.	4f#/	świę-	.	4ff#/	4dd\	-trzen-	.
4r	8ee/L	4ee\	.	4r	.	.	4c#\	-ko;	.	4a/	-ta;	.	4ee/	4ee\	-ko	.
.	8ff#/J	.	.	.	.	.	.	.	.	.	.	.	.	.	.	.
*	*	*	*	*	*	*	*	*	*	*	*	*	*v	*v	*	*
=8	=8	=8	=8	=8	=8	=8	=8	=8	=8	=8	=8	=8	=8	=8	=8
2EE/ 2E	(4gg/	2b\	>	[2E\	wpływ	.	[2e\	wpływ	.	[2b\	wpływ	.	4gg\	świę-	.
.	4ff#/	.	.	.	.	.	.	.	.	.	.	.	4ff#\	-ta;	.
4EE/ 4E	4gg/	4b\	.	4E\]	.	.	4e\]	.	.	4b\]	.	.	4gg\	wpływ	.
4GG/ 4G	4ee/)	4g\	.	4G\	go	.	4e\	go	.	4b\	go	.	4ee\	go	.
=9	=9	=9	=9	=9	=9	=9	=9	=9	=9	=9	=9	=9	=9	=9	=9
4AA\ 4A	2cc#/	2e\	] <	4A\	twój	.	(2e\	twój	.	2.a/	twój	.	(2cc#\	twój	.
4GG\ 4G	.	.	.	4G\	uz-	.	.	.	.	.	.	.	.	.	.
4FF#/ 4F#	4dd/	4f#\	.	4F#\	-dro-	.	4d\)	.	.	.	.	.	4dd\)	.	.
4DD/ 4D	8ee/L	4a\	.	4D\	-wi	.	(8c#\L	uz-	.	4a/	uz-	.	(8ee\L	uz-	.
!LO:LB:g=original	!LO:LB:g=original	!	!	!LO:LB:g=original	!	!	!	!	!	!LO:LB:g=original	!	!	!	!	!
.	8ff#/J	.	.	.	.	.	8d\J)	.	.	.	.	.	8ff#\J)	.	.
!	!LO:LB:g=original	!	!	!	!	!	!LO:LB:g=original	!	!	!	!	!	!LO:LB:g=original	!	!
*	*v	*v	*	*	*	*	*	*	*	*	*	*	*	*	*
=10	=10	=10	=10	=10	=10	=10	=10	=10	=10	=10	=10	=10	=10	=10
*xywh-#33:80,2811,2014,477	*xywh-#33:80,2811,2014,477	*	*xywh-#33:153,2668,1887,289	*	*	*xywh-#33:122,2505,1944,308	*	*	*xywh-#33:131,2365,1934,295	*	*	*xywh-#33:115,2222,1982,295	*	*
4GG\ 4G	2g\ 2b	[	4G\	wpływ	.	(2e\	-dro-	.	(2g/	-dro-	.	(2b\	-dro-	.
4EE\ 4E	.	.	4E\	u-	.	.	.	.	.	.	.	.	.	.
4.AA\ 4.A	4.a\ 4.cc#	.	2A\	-zdro-	.	4.e\	.	.	4.a/	.	.	4.cc#\	.	.
8AA\ 8A	8g\ 8ee	.	.	.	.	8c#\)	.	.	8g/)	.	.	8ee\)	.	.
=11	=11	=11	=11	=11	=11	=11	=11	=11	=11	=11	=11	=11	=11	=11
4D\	4f#\ 4dd	<	2D\	-wi!	.	4d\	-wi!	.	2f#/	-wi!	.	2dd\	-wi!	.
!	!	!	!	!	!	!	!	!LO:DY:a	!	!	!	!	!	!
8F#\L	4r	.	.	.	.	8F#/L	Nieś	f	.	.	.	.	.	.
8A\J	.	.	.	.	.	8A/J	.	.	.	.	.	.	.	.
4d^\	2r	[	2r	.	.	4d\	bos-	.	2r	.	.	2r	.	.
4c#^\	.	.	.	.	.	4c#\	-ką	.	.	.	.	.	.	.
=12	=12	=12	=12	=12	=12	=12	=12	=12	=12	=12	=12	=12	=12	=12
4d^\	2r	.	1r	.	.	4d\	Wia-	.	2r	.	.	1r	.	.
4e^\	.	.	.	.	.	4e\	-rę	.	.	.	.	.	.	.
!	!	!LO:DY:a	!	!	!	!	!	!	!	!	!LO:DY:a	!	!	!
2f#^\	4a/	p	.	.	.	2f#\	nieś	.	4a/	Wia-	p	.	.	.
.	4a/	.	.	.	.	.	.	.	4a/	-rę	.	.	.	.
=13	=13	=13	=13	=13	=13	=13	=13	=13	=13	=13	=13	=13	=13	=13
(4d#X\	2a/ 2b	.	1r	.	.	4d#X\	du-	.	(2a/	bos-	.	2r	.	.
4f#\)	.	.	.	.	.	4f#\	-szo	.	.	.	.	.	.	.
!	!	!	!	!	!	!	!	!	!	!	!	!	!	!LO:DY:a
4e\	4g#X/ 4b	.	.	.	.	4e\	w nim	.	4g#X/)	.	.	4b\	Wia-	p
4dn\	4g#/ 4b	.	.	.	.	4dn\	po-	.	4g#/	-ką	.	4b\	-rę	.
=14	=14	=14	=14	=14	=14	=14	=14	=14	=14	=14	=14	=14	=14	=14
(4c#\	2gn/ 2a	.	2r	.	.	(4c#\	-czę-	.	2a/	nieś	.	(2g/	bos-	.
4e\)	.	.	.	.	.	4e\)	.	.	.	.	.	.	.	.
4d'\	4f#/ 4a	.	4d\	Wia-	.	4d\	-ta	.	4a/	du-	.	4f#/)	.	.
4c#'\	4f#/ 4a	.	4c#\	-rę	.	4r	.	.	4a/	-szo	.	4f#/	-ką	.
=15	=15	=15	=15	=15	=15	=15	=15	=15	=15	=15	=15	=15	=15	=15
*	*^	*	*	*	*	*	*	*	*	*	*	*	*	*
*xywh-#33:80,2811,2014,477	*xywh-#33:80,2811,2014,477	*xywh-#33:80,2811,2014,477	*	*	*	*	*	*	*	*	*	*	*	*	*
(4B\	4g/	2f#\	.	(4B\	bos-	.	2r	.	.	4g/	du-	.	1f#	nieś	.
!	!	!	!	!	!	!	!	!	!	!	!	!	!LO:PB:g=original	!	!
4d\)	4f#/	.	.	4d\	.	.	.	.	.	4f#/	-szo	.	.	.	.
4c#'\	4f#/	4e\	.	4c#\)	.	.	4e\	du-	.	4f#/	w nim	.	.	.	.
4B'\	4e/	4d\	.	4B\	-ką	.	4d\	-szo	.	4f#/	po-	.	.	.	.
!LO:PB:g=original	!LO:PB:g=original	!	!	!LO:PB:g=original	!	!	!LO:PB:g=original	!	!	!LO:PB:g=original	!	!	!	!	!
*	*v	*v	*	*	*	*	*	*	*	*	*	*	*	*	*
=16	=16	=16	=16	=16	=16	=16	=16	=16	=16	=16	=16	=16	=16	=16
*xywh-#34:335,650,2011,489	*xywh-#34:335,650,2011,489	*	*xywh-#34:463,533,1894,267	*	*	*xywh-#34:410,397,1921,252	*	*	*xywh-#34:391,266,1977,263	*	*	*xywh-#34:373,96,1985,301	*	*
2A#X^\	2c#^/ 2e 2f# 2cc#	sf	2A#X\	nieś	.	2c#\	w nim	.	2cc#\	-czę-	.	4f#/	du-	.
.	.	.	.	.	.	.	.	.	.	.	.	4f#/	-szo	.
4F#^\	4f#^/	.	4F#\	du-	.	4r	.	.	4f#/	-ta	.	4f#/	w nim	.
4F#^\	4f#^/	.	4F#\	-szo	.	4F#/	po-	.	4r	.	.	4f#/	po-	.
=17	=17	=17	=17	=17	=17	=17	=17	=17	=17	=17	=17	=17	=17	=17
*^	*	*	*	*	*	*	*	*	*	*	*	*	*	*
*xywh-#34:335,650,2011,489	*xywh-#34:335,650,2011,489	*xywh-#34:335,650,2011,489	*	*	*	*	*	*	*	*	*	*	*	*	*
!	!	!	!	!	!	!LO:DY:a	!	!	!LO:DY:a	!	!	!LO:DY:a	!	!	!LO:DY:a
2BB\ 2B	2ryy	2f#/ 2dd	f	[2BB/	w nim	f	2B\	-czę-	f	2f#/	w Bo-	f	2dd\	-czę-	f
4A#X/	4BB\	4e/ 4cc#	.	4BB/]	.	.	4A#X/	-ta	.	4e/	-gu	.	4cc#\	-ta	.
4B/	8D\L	4d/ 4b	.	(8D\L	po-	.	4B\	po-	.	4f#/	po-	.	4b\	po-	.
.	8E\J	.	.	8E\J)	.	.	.	.	.	.	.	.	.	.	.
*v	*v	*	*	*	*	*	*	*	*	*	*	*	*	*	*
=18	=18	=18	=18	=18	=18	=18	=18	=18	=18	=18	=18	=18	=18	=18
2F#\	2c#/ 2f# 2a#X	sf	2F#\	-czę-	.	2c#\	-czę-	.	2f#/	-czę-	.	2a#X\	-czę-	.
4F#\	4f#/	p	4F#\	-ta!	.	4c#\	-ta!	.	4f#/	-ta!	.	4f#/	-ta!	.
4F#\	4f#/	.	4r	.	.	4r	.	.	4r	.	.	4r	.	.
=19	=19	=19	=19	=19	=19	=19	=19	=19	=19	=19	=19	=19	=19	=19
2BB\ 2B	2f#/ 2dd	<	1r	.	.	1r	.	.	1r	.	.	1r	.	.
4BB\ 4A#X	4e/ 4cc#	.	.	.	.	.	.	.	.	.	.	.	.	.
4BB\ 4An	4f#/ 4dd#X	[[	.	.	.	.	.	.	.	.	.	.	.	.
=20	=20	=20	=20	=20	=20	=20	=20	=20	=20	=20	=20	=20	=20	=20
2E\ 2G	2g/ 2ee	.	2r	.	.	2r	.	.	2r	.	.	2r	.	.
!	!	!	!	!	!LO:DY:a	!	!	!LO:DY:a	!	!	!LO:DY:a	!	!	!LO:DY:a
2r	2r	.	4B\	nie-	f	4B\	nie-	f	4b\	nie-	f	4b\	nie-	f
.	.	.	4B\	-chaj	.	4B\	-chaj	.	4b\	-chaj	.	4b\	-chaj	.
=21	=21	=21	=21	=21	=21	=21	=21	=21	=21	=21	=21	=21	=21	=21
1r	1r	.	[2E\	świat	.	(2B\	świat	.	(2g/	świat	.	(2ee\	świat	.
!LO:LB:g=original	!LO:LB:g=original	!	!	!	!	!	!	!	!	!	!	!	!	!
.	.	.	4E\]	.	.	4cn\)	.	.	4f#/)	.	.	4dd#X\)	.	.
.	.	.	4E\	od-	.	4B\	od-	.	4g/	od-	.	4ee\	od-	.
!	!	!	!LO:LB:g=original	!	!	!LO:LB:g=original	!	!	!LO:LB:g=original	!	!	!LO:LB:g=original	!	!
=22	=22	=22	=22	=22	=22	=22	=22	=22	=22	=22	=22	=22	=22	=22
*xywh-#34:351,1660,2034,467	*xywh-#34:351,1660,2034,467	*	*xywh-#34:381,1520,1954,290	*	*	*xywh-#34:411,1392,1913,244	*	*	*xywh-#34:404,1238,1936,244	*	*	*xywh-#34:265,1034,2086,301	*	*
2r	2r	.	(2BB/	-no-	.	(2B\	-no-	.	(2f#/	-no-	.	(2dd#X\	-no-	.
4B^\	4b^\	.	4B\)	.	.	4B\)	.	.	4b\)	.	.	4b\)	.	.
4B^\	4b^\	.	4B\	-wi!	.	4B\	-wi!	.	4b\	-wi!	.	4b\	-wi!	.
=23	=23	=23	=23	=23	=23	=23	=23	=23	=23	=23	=23	=23	=23	=23
!	!	!	!	!	!LO:DY:a	!	!	!LO:DY:a	!	!	!LO:DY:a	!	!	!LO:DY:a
2E\ 2B	2g\ 2ee	f	2E\	Sła-	<	2.B\	Sła-	<	[2g/	Sła-	<	2ee\	Sła-	<
4E\ 4B	4f#\ 4dd#X	.	4E\	.	.	.	.	.	4g/]	.	.	4dd#X\	.	.
4E\ 4B	4g\ 4ee	.	4E\	-wa	[[	4B\	-wa	[[	4g/	-wa	[[	4ee\	-wa	[[
=24	=24	=24	=24	=24	=24	=24	=24	=24	=24	=24	=24	=24	=24	=24
*	*^	*	*	*	*	*	*	*	*	*	*	*	*	*
*	*	*^	*	*	*	*	*	*	*	*	*	*	*	*	*
*xywh-#34:351,1660,2034,467	*xywh-#34:351,1660,2034,467	*xywh-#34:351,1660,2034,467	*	*	*	*	*	*	*	*	*	*	*	*	*	*
2D\ 2d	2ff#/	2f#\	8dd\L	sf	(2D\	Woj-	.	(2d\	Woj-	.	(2a/	Woj-	.	(2ff#\	Woj-	.
.	.	.	8cc#X\	.	.	.	.	.	.	.	.	.	.	.	.	.
.	.	.	8dd\	.	.	.	.	.	.	.	.	.	.	.	.	.
.	.	.	8ee\J	.	.	.	.	.	.	.	.	.	.	.	.	.
4D\ 4d	8dd\L	2ryy	2ryy	.	4d\)	.	.	4d\)	.	.	4dd\)	.	.	4dd\)	.	.
.	8ccn\	.	.	.	.	.	.	.	.	.	.	.	.	.	.	.
4D\ 4d	8b\	.	.	.	4d\	-cie-	.	4d\	-cie-	.	4dd\	-cie-	.	4dd\	-cie-	.
.	8a\J	.	.	.	.	.	.	.	.	.	.	.	.	.	.	.
*	*v	*v	*v	*	*	*	*	*	*	*	*	*	*	*	*	*
=25	=25	=25	=25	=25	=25	=25	=25	=25	=25	=25	=25	=25	=25	=25
!	!	!	!	!	!LO:DY:a	!	!	!LO:DY:a	!	!	!LO:DY:a	!	!	!LO:DY:a
4GG/	8b\L 8gg	.	1G	-cho-	ff	1d	-cho-	ff	1b	-cho-	ff	1gg	-cho-	ff
.	8g\	.	.	.	.	.	.	.	.	.	.	.	.	.
8AA/L	8b\ 8gg	.	.	.	.	.	.	.	.	.	.	.	.	.
8BB/J	8b\J 8gg	.	.	.	.	.	.	.	.	.	.	.	.	.
8Cn\L	8b\L 8gg	.	.	.	.	.	.	.	.	.	.	.	.	.
8D\	8g\	.	.	.	.	.	.	.	.	.	.	.	.	.
8E\	8b\ 8gg	.	.	.	.	.	.	.	.	.	.	.	.	.
8F#\J	8b\J 8gg	.	.	.	.	.	.	.	.	.	.	.	.	.
=26	=26	=26	=26	=26	=26	=26	=26	=26	=26	=26	=26	=26	=26	=26
2GG^\ 2G	8b\L 8gg	<	2G\	-wi!	.	2d\	-wi!	.	2b\	-wi!	.	2gg\	-wi!	.
.	8g\	.	.	.	.	.	.	.	.	.	.	.	.	.
.	8a\	.	.	.	.	.	.	.	.	.	.	.	.	.
.	8b\J	.	.	.	.	.	.	.	.	.	.	.	.	.
4GG\ 4G	8ccn\L	.	4G\	Wia-	.	4d\	Wia-	.	4b\	Wia-	.	4gg\	Wia-	.
.	8dd\	.	.	.	.	.	.	.	.	.	.	.	.	.
4GG\ 4G	8ee\	.	4G\	-rą	.	4d\	-rą	.	4b\	-rą	.	4gg\	-rą	.
.	8ff#\J	[[	.	.	.	.	.	.	.	.	.	.	.	.
=27	=27	=27	=27	=27	=27	=27	=27	=27	=27	=27	=27	=27	=27	=27
2AA\ 2E	(8gg\L	.	[2A\	świat	.	[2c#\	świat	.	[2a/	świat	.	[2gg\	świat	.
.	8a\	.	.	.	.	.	.	.	.	.	.	.	.	.
.	8g#X\	.	.	.	.	.	.	.	.	.	.	.	.	.
.	8a\J	.	.	.	.	.	.	.	.	.	.	.	.	.
!	!	!	!	!	!LO:HP:t=dim	!	!	!LO:HP:t=dim	!	!	!LO:HP:t=dim	!	!	!LO:HP:t=dim
4A\ 4c#X 4e	8cc#X\L	.	4A\]	.	>	4c#\]	.	>	4a/]	.	>	4gg\]	.	>
.	8ee\	.	.	.	.	.	.	.	.	.	.	.	.	.
4A\ 4c# 4e	8gg\)	.	4A\	od-	]]	4c#\	od-	]]	4a/	od-	]]	4gg\	od-	]]
!LO:LB:g=original	!	!	!LO:LB:g=original	!	!	!LO:LB:g=original	!	!	!LO:LB:g=original	!	!	!LO:LB:g=original	!	!
.	8gg'\J	.	.	.	.	.	.	.	.	.	.	.	.	.
!	!LO:LB:g=original	!	!	!	!	!	!	!	!	!	!	!	!	!
=28	=28	=28	=28	=28	=28	=28	=28	=28	=28	=28	=28	=28	=28	=28
*xywh-#34:336,2653,2015,531	*xywh-#34:336,2653,2015,531	*	*xywh-#34:423,2521,1909,278	*	*	*xywh-#34:408,2370,1962,259	*	*	*xywh-#34:381,2224,1951,267	*	*	*xywh-#34:328,2021,2049,308	*	*
2.D\ 2.d	8ff#\L	.	2D\	-no-	.	2d\	-no-	.	2ee\	-no-	.	2ff#\	-no-	.
.	8a\	.	.	.	.	.	.	.	.	.	.	.	.	.
.	8dd\	.	.	.	.	.	.	.	.	.	.	.	.	.
.	8ee\J	.	.	.	.	.	.	.	.	.	.	.	.	.
.	8ff#\L	.	2D\	-wi	.	2d\	-wi	.	2dd\	-wi	.	2ff#\	-wi	.
.	8dd\	.	.	.	.	.	.	.	.	.	.	.	.	.
4r	8a\	.	.	.	.	.	.	.	.	.	.	.	.	.
.	8f#\J	.	.	.	.	.	.	.	.	.	.	.	.	.
=29	=29	=29	=29	=29	=29	=29	=29	=29	=29	=29	=29	=29	=29	=29
4FF#\ 4F#	8ff#\L	.	4D\	Wia-	.	4d\	Wia-	.	4dd\	Wia-	.	4ff#\	Wia-	.
.	8a#X\	.	.	.	.	.	.	.	.	.	.	.	.	.
4r	8cc#\	.	4F#\	-rą	.	4c#\	-rą	.	(8cc#\L	-rą	.	4ee\	-rą	.
.	8a#\J	.	.	.	.	.	.	.	8b\J)	.	.	.	.	.
4F#\ 4A#X 4c#	8f#\L	.	4F#\	świat	.	4c#\	świat	.	4a#X/	świat	.	4ee\	świat	.
.	8a#\	.	.	.	.	.	.	.	.	.	.	.	.	.
4F#\ 4A# 4c#	8cc#\	.	4F#\	od-	.	4c#\	od-	.	4a#/	od-	.	4ee\	od-	.
.	8ee\J	.	.	.	.	.	.	.	.	.	.	.	.	.
=30	=30	=30	=30	=30	=30	=30	=30	=30	=30	=30	=30	=30	=30	=30
*^	*	*	*	*	*	*	*	*	*	*	*	*	*	*
*xywh-#34:336,2653,2015,531	*xywh-#34:336,2653,2015,531	*xywh-#34:336,2653,2015,531	*	*	*	*	*	*	*	*	*	*	*	*	*
!LO:N:vis=8	!	!	!	!	!	!	!	!	!	!	!	!	!	!	!
4F#/	2BB\	2f#\ 2cc# 2ee	.	(4F#\	-no-	.	2c#\	-no-	.	(2a#X/	-no-	.	(2ee^\	-no-	.
!LO:N:vis=16	!	!	!	!	!	!	!	!	!	!	!	!	!	!	!
8G#X/L	.	.	.	8G#X\L	.	.	.	.	.	.	.	.	.	.	.
!LO:N:vis=16	!	!	!	!	!	!	!	!	!	!	!	!	!	!	!
8A#X/J	.	.	.	8A#X\J)	.	.	.	.	.	.	.	.	.	.	.
4B/	4BB\	4f#\ 4b 4dd	.	4B\	-wi;	.	(4B/	-wi;	.	4b/)	.	.	4dd\)	.	.
(8B\L	4ryy	(4f#\ 4b 4dd#X	.	4r	.	.	8B/L	.	.	4f#/	-wi;	.	4dd#X\	-wi;	.
8An\J)	.	.	.	.	.	.	8A/J)	.	.	.	.	.	.	.	.
*v	*v	*	*	*	*	*	*	*	*	*	*	*	*	*	*
=31	=31	=31	=31	=31	=31	=31	=31	=31	=31	=31	=31	=31	=31	=31
4G\	4g\ 4b 4ee	.	4G\	sła-	.	4G/	sła-	.	4b\	sła-	.	4ee\	sła-	.
4F#\	4b\ 4dd#X 4ff#	.	4F#\	-wa	.	4A/	-wa	.	4b\	-wa	.	4ff#\	-wa	.
4E\	4b\ 4ee 4gg	.	4E\	Woj-	.	4B\	Woj-	.	4b\	Woj-	.	4gg\	Woj-	.
4G\	4g\) 4b 4ee	.	4G\	-cie-	.	4e\	-cie-	.	4b\	-cie-	.	4ee\	-cie-	.
=32	=32	=32	=32	=32	=32	=32	=32	=32	=32	=32	=32	=32	=32	=32
*	*^	*	*	*	*	*	*	*	*	*	*	*	*	*
*	*	*^	*	*	*	*	*	*	*	*	*	*	*	*	*
*xywh-#34:336,2653,2015,531	*xywh-#34:336,2653,2015,531	*xywh-#34:336,2653,2015,531	*	*	*	*	*	*	*	*	*	*	*	*	*	*
4A\	2cc#/	2e\	2ryy	.	(4An\	-cho-	.	2e\	-cho-	.	2a/	-cho-	.	2cc#\	-cho-	.
4G\	.	.	.	.	4Gn\)	.	.	.	.	.	.	.	.	.	.	.
4F#\	4dd/	2a\	4d\	.	4F#\	-wi	.	4d\	-wi	.	4a/	-wi	.	4dd\	-wi	.
8E\L	8ee/L	.	4ryy	.	(8E\L	sła-	.	(8c#\L	sła-	.	4a/	sła-	.	(8ee\L	sła-	.
8D\J	8ff#/J	.	.	.	8D\J)	.	.	8d\J)	.	.	.	.	.	8ff#\J)	.	.
*	*v	*v	*v	*	*	*	*	*	*	*	*	*	*	*	*	*
=33	=33	=33	=33	=33	=33	=33	=33	=33	=33	=33	=33	=33	=33	=33
4G\	2g\ 2b 2gg	.	(4G\	-wa	.	2e^\	-wa	.	2b^/	-wa	.	2gg^\	-wa	.
4E\	.	.	4E\)	.	.	.	.	.	.	.	.	.	.	.
!	!	!	!	!	!LO:DY:a	!	!	!LO:DY:a	!	!	!LO:DY:a	!	!	!LO:DY:a
4A\	2g\ 2b 2cc# 2ee	.	(4.A\	sła-	f	2c#\	sła-	f	(4.a/	sła-	f	2ee\	sła-	f
!	!LO:PB:g=original	!	!	!	!	!	!LO:PB:g=original	!	!	!	!	!	!LO:PB:g=original	!
4AA/	.	.	.	.	.	.	.	.	.	.	.	.	.	.
!LO:PB:g=original	!	!	!	!	!	!	!	!	!	!	!	!	!	!
.	.	.	8AA/)	.	.	.	.	.	8g/)	.	.	.	.	.
!	!	!	!LO:PB:g=original	!	!	!	!	!	!LO:PB:g=original	!	!	!	!	!
=34	=34	=34	=34	=34	=34	=34	=34	=34	=34	=34	=34	=34	=34	=34
*	*^	*	*	*	*	*	*	*	*	*	*	*	*	*
*xywh-#35:187,768,2002,461	*xywh-#35:187,768,2002,461	*xywh-#35:187,768,2002,461	*	*xywh-#35:205,611,1943,265	*	*	*xywh-#35:240,487,1938,225	*	*	*xywh-#35:240,346,1898,230	*	*	*xywh-#35:232,181,1933,275	*	*
(4D\	4f#\ 4a 4dd	4ryy	.	2D\	-wa!	.	2d\	-wa!	.	2f#/	-wa!	.	2dd\	-wa!	.
8F#\L	4r	4ryy	.	.	.	.	.	.	.	.	.	.	.	.	.
8A\J)	.	.	.	.	.	.	.	.	.	.	.	.	.	.	.
4d^\	4dd/	4f#\	.	2r	.	.	2r	.	.	2r	.	.	2r	.	.
4c#^\	8ee/L	4a\	.	.	.	.	.	.	.	.	.	.	.	.	.
.	8ff#/J	.	.	.	.	.	.	.	.	.	.	.	.	.	.
=35	=35	=35	=35	=35	=35	=35	=35	=35	=35	=35	=35	=35	=35	=35	=35
4B^\	4dd/ 4gg	4g\	.	1r	.	.	1r	.	.	1r	.	.	1r	.	.
4A^\	4ff#/	4cc#\	.	.	.	.	.	.	.	.	.	.	.	.	.
4G^\	4ee/	4b\	.	.	.	.	.	.	.	.	.	.	.	.	.
4F#^\	4dd/	4a\	.	.	.	.	.	.	.	.	.	.	.	.	.
=36	=36	=36	=36	=36	=36	=36	=36	=36	=36	=36	=36	=36	=36	=36	=36
*^	*	*	*	*	*	*	*	*	*	*	*	*	*	*	*
*xywh-#35:187,768,2002,461	*xywh-#35:187,768,2002,461	*xywh-#35:187,768,2002,461	*	*	*	*	*	*	*	*	*	*	*	*	*	*
2A/	2E\	4aa/	2cc#\	sf	2r	.	.	1r	.	.	2r	.	.	2r	.	.
.	.	4gg/	.	.	.	.	.	.	.	.	.	.	.	.	.	.
!	!	!	!	!	!	!	!LO:DY:a	!	!	!	!	!	!LO:DY:a	!	!	!LO:DY:a
4d/	4D\	4ff#t/	4dd\	mf	4d\	Ty	f	.	.	.	4f#/	Ty	f	4dd\	Ty	f
4c#/	4ryy	8ee/L	8ee\L	.	4c#\	z pół-	.	.	.	.	4a/	z pół-	.	8ee\L	z pół-	.
.	.	8ff#/J	8ff#\J	.	.	.	.	.	.	.	.	.	.	8ff#\J	.	.
*v	*v	*	*	*	*	*	*	*	*	*	*	*	*	*	*	*
=37	=37	=37	=37	=37	=37	=37	=37	=37	=37	=37	=37	=37	=37	=37	=37
*	*	*^	*	*	*	*	*	*	*	*	*	*	*	*	*
*xywh-#35:187,768,2002,461	*xywh-#35:187,768,2002,461	*xywh-#35:187,768,2002,461	*	*	*	*	*	*	*	*	*	*	*	*	*	*
4B\	4gg/	4g\	2dd\	.	4B\	-no-	.	4r	.	.	4g/	-no-	.	4gg\	-no-	.
!	!	!	!	!	!	!	!	!	!	!LO:DY:a	!	!	!	!	!	!
4A\	4ff#/	4f#\	.	.	4A\	-cnych	.	4d\	z pół-	f	4f#/	-cnych	.	4ff#\	-cnych	.
4G\	4ee/	4e\	2r	.	4G\	lu-	.	4c#\	-no-	.	4a/	lu-	.	4ee\	lu-	.
4F#\	4dd/	4d\	.	.	4F#\	-dów	.	4d\	-cnych	.	4a/	-dów	.	4dd\	-dów	.
*	*	*v	*v	*	*	*	*	*	*	*	*	*	*	*	*	*
=38	=38	=38	=38	=38	=38	=38	=38	=38	=38	=38	=38	=38	=38	=38	=38
*^	*	*	*	*	*	*	*	*	*	*	*	*	*	*	*
*xywh-#35:187,768,2002,461	*xywh-#35:187,768,2002,461	*xywh-#35:187,768,2002,461	*	*	*	*	*	*	*	*	*	*	*	*	*	*
(2A^/	(2E\	4aa/	2cc#\	sf	(2E\	zdejm	.	2A/	lu-	.	4a/	zdejm	.	(2cc#\	zdejm	.
.	.	4gg/	.	.	.	.	.	.	.	.	4g/	nie-	.	.	.	.
4d/)	4D\)	4ff#t/	4dd\	.	4D\)	.	.	4d\	-dów	.	4f#/	-wo-	.	4dd\)	.	.
4r	4ryy	8ee/L	8ee\L	.	4r	.	.	4c#\	zdejm	.	4f#/	-li	.	4r	.	.
.	.	8ff#/J	8ff#\J	.	.	.	.	.	.	.	.	.	.	.	.	.
*v	*v	*	*	*	*	*	*	*	*	*	*	*	*	*	*	*
=39	=39	=39	=39	=39	=39	=39	=39	=39	=39	=39	=39	=39	=39	=39	=39
4B\	4gg/	2dd\	.	4B\	zdejm	.	2d\	nie-	.	4gg\	zdejm	.	1r	.	.
!	!	!	!	!	!	!	!	!	!	!	!	!	!LO:LB:g=original	!	!
4A\	4ff#/	.	.	4A\	nie-	.	.	.	.	4ff#\	nie-	.	.	.	.
4G\	4ee/	4cc#\	.	4G\	-wo-	.	4c#\	-wo-	.	4ee\	-wo-	.	.	.	.
4F#\	4dd/	4dd\	.	4F#\	-li	.	4d\	-li	.	4dd\	-li	.	.	.	.
!LO:LB:g=original	!	!LO:LB:g=original	!	!LO:LB:g=original	!	!	!LO:LB:g=original	!	!	!LO:LB:g=original	!	!	!	!	!
=40	=40	=40	=40	=40	=40	=40	=40	=40	=40	=40	=40	=40	=40	=40	=40
*^	*	*	*	*	*	*	*	*	*	*	*	*	*	*	*
*xywh-#35:155,1727,2026,474	*xywh-#35:155,1727,2026,474	*xywh-#35:155,1727,2026,474	*xywh-#35:155,1727,2026,474	*	*xywh-#35:219,1552,1909,315	*	*	*xywh-#35:211,1453,1925,241	*	*	*xywh-#35:229,1308,1906,241	*	*	*xywh-#35:195,1154,1975,251	*	*
2A/	2E\	4aa/	2cc#\	f	2E\	pę-	.	2A/	pę-	.	2cc#\	pę-	.	4aa\	zdejm	.
.	.	4gg/	.	.	.	.	.	.	.	.	.	.	.	4gg\	nie-	.
4d/	4D\	4ff#t/	4dd\	.	2D\	-ta	.	2A/	-ta	.	2dd\	-ta	.	2ff#\	-wo-	.
4r	4ryy	8ee\L	4ryy	.	.	.	.	.	.	.	.	.	.	.	.	.
.	.	8ff#\J	.	.	.	.	.	.	.	.	.	.	.	.	.	.
*v	*v	*	*	*	*	*	*	*	*	*	*	*	*	*	*	*
*	*v	*v	*	*	*	*	*	*	*	*	*	*	*	*	*
=41	=41	=41	=41	=41	=41	=41	=41	=41	=41	=41	=41	=41	=41	=41
2E\	4b\ 4gg	p	2E\	nie-	.	2r	.	.	4b\	zdejm	.	4gg\	-li	.
.	4a\ 4ff#	.	.	.	.	.	.	.	4a\	nie-	.	4ff#\	nie-	.
4E\	4b\ 4gg	.	4E\	-wo-	.	4e\	zdejm	.	(4b\	-wo-	.	4gg\	-wo-	.
4G\	4g\ 4ee	.	4G\	-li	.	4e\	nie-	.	4g\)	.	.	4ee\	-li	.
=42	=42	=42	=42	=42	=42	=42	=42	=42	=42	=42	=42	=42	=42	=42
*	*^	*	*	*	*	*	*	*	*	*	*	*	*	*
*	*	*^	*	*	*	*	*	*	*	*	*	*	*	*	*
*xywh-#35:155,1727,2026,474	*xywh-#35:155,1727,2026,474	*xywh-#35:155,1727,2026,474	*xywh-#35:155,1727,2026,474	*	*	*	*	*	*	*	*	*	*	*	*	*
4A\	2cc#/	2e\	2ryy	<	4A\	zdejm	.	2e\	-wo-	.	1a	-li	.	4cc#\	zdejm	.
4G\	.	.	.	.	4G\	nie-	.	.	.	.	.	.	.	4cc#\	nie-	.
4F#\	4dd/	2a\	4d\	.	4F#\	-wo-	.	4d\	.	.	.	.	.	4dd\	-wo-	.
8E\L	8ee/L	.	4ryy	.	(8E\L	-li	.	(8c#\L	-li	.	.	.	.	(8ee\L	-li	.
8D\J	8ff#/J	.	.	.	8D\J)	.	.	8d\J)	.	.	.	.	.	8ff#\J)	.	.
*	*	*v	*v	*	*	*	*	*	*	*	*	*	*	*	*	*
=43	=43	=43	=43	=43	=43	=43	=43	=43	=43	=43	=43	=43	=43	=43	=43
!	!	!	!	!	!	!	!	!	!	!	!	!	!	!	!LO:DY:a
4G\	2b/	2g\	[	4G\	pę-	.	([2e\	pę-	.	(2g/	pe-	.	(2b\	pę-	f
4E\	.	.	.	4E\	-ta	.	.	.	.	.	.	.	.	.	.
4A\	2cc#/	2e\ 2a	.	4A\	zdejm	.	4.e\]	.	.	2a\)	.	.	4.cc#\	.	.
!	!	!	!	!	!	!LO:DY:a	!	!	!	!	!	!	!	!	!
4G\	.	.	.	4G\	nie-	f	.	.	.	.	.	.	.	.	.
.	.	.	.	.	.	.	8c#\)	.	.	.	.	.	8ee\)	.	.
=44	=44	=44	=44	=44	=44	=44	=44	=44	=44	=44	=44	=44	=44	=44	=44
4F#^\	4dd/	4d\ 4a	f	4F#\	-wo-	.	4d\	-ta	.	4a/	-ta	.	4dd\	-ta	.
4E^\	4r	4ryy	.	4E\	-li	.	4r	.	.	4r	.	.	4r	.	.
4D^\	4d^/	2ryy	.	4D\	pę-	.	4d\	zdejm	.	2r	.	.	2r	.	.
4C#^\	4d^/	.	.	4C#/	-ta	.	4d\	nie-	.	.	.	.	.	.	.
=45	=45	=45	=45	=45	=45	=45	=45	=45	=45	=45	=45	=45	=45	=45	=45
4BB/	2r	4d\	.	4BB/	zdejm	.	4d\	-wo-	.	2r	.	.	2r	.	.
4r	.	4c#\	.	4r	.	.	4c#\	-li	.	.	.	.	.	.	.
2r	4a/	4B\	.	2r	.	.	4B\	pę-	.	4g/	zdejm	.	2r	.	.
!LO:LB:g=original	!	!	!	!LO:LB:g=original	!	!	!	!	!	!	!	!	!LO:LB:g=original	!	!
.	4g/	4A\	.	.	.	.	4A\	-ta	.	4g/	nie-	.	.	.	.
!	!LO:LB:g=original	!LO:LB:g=original	!	!	!	!	!LO:LB:g=original	!	!	!LO:LB:g=original	!	!	!	!	!
=46	=46	=46	=46	=46	=46	=46	=46	=46	=46	=46	=46	=46	=46	=46	=46
*xywh-#35:167,2688,1979,483	*xywh-#35:167,2688,1979,483	*xywh-#35:167,2688,1979,483	*	*xywh-#35:211,2538,1922,270	*	*	*xywh-#35:218,2405,1918,248	*	*	*xywh-#35:202,2265,1995,267	*	*	*xywh-#35:167,2154,1998,232	*	*
4E\	4g/	2G\	.	4E\	z pół-	.	[2G/	zdejm	.	4g/	-wo-	.	1r	.	.
4D\	4f#/	.	.	4D\	-no-	.	.	.	.	4f#/	-li	.	.	.	.
4C#/	4e/	2ryy	.	4C#/	-cnych	.	4G/]	.	.	4e/	pę-	.	.	.	.
4BB/	4e/	.	.	4BB/	lu-	.	4r	.	.	4e/	-ta	.	.	.	.
=47	=47	=47	=47	=47	=47	=47	=47	=47	=47	=47	=47	=47	=47	=47	=47
*^	*	*	*	*	*	*	*	*	*	*	*	*	*	*	*
*xywh-#35:167,2688,1979,483	*xywh-#35:167,2688,1979,483	*xywh-#35:167,2688,1979,483	*	*	*	*	*	*	*	*	*	*	*	*	*	*
4A^/	4AA\	2e/	2e\	.	4AA/	-dów	.	4A/	pę-	.	(2e/	zdejm	.	2r	.	.
4G^/	4r	.	.	.	4r	.	.	4G/	-ta	.	.	.	.	.	.	.
!	!	!	!	!	!	!	!	!	!	!	!	!	!	!	!	!LO:DY:a
4F#^/	2r	4a^/	4d\	.	4F#\	zdejm	.	2A/	zdejm!	.	4d/)	.	.	4a/	zdejm	mf
4E^/	.	4a^/	4r	.	4E\	nie-	.	.	.	.	4r	.	.	4a/	nie-	.
*v	*v	*	*	*	*	*	*	*	*	*	*	*	*	*	*	*
*	*v	*v	*	*	*	*	*	*	*	*	*	*	*	*	*
=48	=48	=48	=48	=48	=48	=48	=48	=48	=48	=48	=48	=48	=48	=48
4D^\	2f#^/ 2a	.	4D/	-wo-	.	1r	.	.	2f#/	zdejm	.	(2a/	-wo-	.
4C#^\	.	.	4C#/	-li	.	.	.	.	.	.	.	.	.	.
!	!	!	!	!	!	!	!	!	!	!	!LO:DY:a	!	!	!LO:DY:a
4BB^\	4f#^/ 4dd	.	4BB/	pę-	.	.	.	.	4f#/	pę-	f	4dd\)	.	f
4AA^\	4f#^/ 4dd	.	4AA/	-ta	.	.	.	.	4f#/	-ta	.	4dd\	-li	.
=49	=49	=49	=49	=49	=49	=49	=49	=49	=49	=49	=49	=49	=49	=49
*	*^	*	*	*	*	*	*	*	*	*	*	*	*	*
*xywh-#35:167,2688,1979,483	*xywh-#35:167,2688,1979,483	*xywh-#35:167,2688,1979,483	*	*	*	*	*	*	*	*	*	*	*	*	*
4GG/	4dd/	4e\	<	4GG/	zdejm!	.	4B\	.	.	4e/	zdejm!	.	(4dd\	pę-	.
2G\	8cc#/L	2e\	[	4r	.	.	(2G/	Sła-	.	[2e/	Sła-	.	8cc#\L	.	.
.	8b/J	.	>	.	.	.	.	.	.	.	.	.	8b\J	.	.
.	4cc#/	.	.	2r	.	.	.	.	.	.	.	.	4cc#\)	.	.
[4F#\	4dd/	4d\	.	.	.	.	4F#/)	.	.	4e/]	.	.	4dd\	-ta!	.
=50	=50	=50	=50	=50	=50	=50	=50	=50	=50	=50	=50	=50	=50	=50	=50
*^	*	*	*	*	*	*	*	*	*	*	*	*	*	*	*
*xywh-#35:167,2688,1979,483	*xywh-#35:167,2688,1979,483	*xywh-#35:167,2688,1979,483	*xywh-#35:167,2688,1979,483	*	*	*	*	*	*	*	*	*	*	*	*	*
4F#\]	4ryy	4f#/	2f#\	]	4r	.	.	4F#/	-wa	.	(4f#/	-wa	.	2r	.	.
4E\	4ryy	8g#X/L	.	.	(4E\	Sła-	.	4r	.	.	8g#X/L	.	.	.	.	.
.	.	8a#X/J	.	.	.	.	.	.	.	.	8a#X/J)	.	.	.	.	.
!	!	!	!	!	!	!	!LO:DY:a	!	!	!LO:DY:a	!	!	!LO:DY:a	!	!	!LO:DY:a
4B/	4D\	4b/	4f#\	< <	4D\	.	<	4B\	sła-	<	4f#/	sła-	<	4b\	Sła-	<
4A#X/	4C#\	4cc#/	4e\	.	4C#\)	.	[[	4A#X\	-wa	[[	4e/	-wa	[[	4cc#\	-wa	[[
!	!LO:PB:g=original	!LO:PB:g=original	!	!	!LO:PB:g=original	!	!	!LO:PB:g=original	!	!	!LO:PB:g=original	!	!	!LO:PB:g=original	!	!
*	*	*v	*v	*	*	*	*	*	*	*	*	*	*	*	*	*
=51	=51	=51	=51	=51	=51	=51	=51	=51	=51	=51	=51	=51	=51	=51	=51
*xywh-#36:316,740,1930,464	*xywh-#36:316,740,1930,464	*xywh-#36:316,740,1930,464	*	*xywh-#36:354,583,1955,254	*	*	*xywh-#36:325,451,1939,241	*	*	*xywh-#36:332,325,1939,257	*	*	*xywh-#36:281,115,2034,342	*	*
4B/	2BB\	4d/ 4dd	[ [	2BB/	-wa	.	4B\	sła-	.	4d/	sła-	.	4dd\	sła-	.
8B/L	.	4f#/ 4b 4dd#X	.	.	.	.	(8B/L	-wa	.	4f#/	-wa	.	4dd#X\	-wa	.
8A/J	.	.	.	.	.	.	8An/J)	.	.	.	.	.	.	.	.
4G/	4E\	4e/ 4b 4ee	.	4E\	Woj-	.	4G/	Woj-	.	4e/	Woj-	.	4ee\	Woj-	.
4B/	4D#X\	4f#/ 4b 4ff#	.	4D#X\	-cie-	.	4B/	-cie-	.	4f#/	-cie-	.	4ff#\	-cie-	.
*v	*v	*	*	*	*	*	*	*	*	*	*	*	*	*	*
=52	=52	=52	=52	=52	=52	=52	=52	=52	=52	=52	=52	=52	=52	=52
!	!	!	!	!	!LO:DY:a	!	!	!LO:DY:a	!	!	!LO:DY:a	!	!	!LO:DY:a
4E\ 4e	2g\ 2b 2gg	f	2.E\	-cho-	ff	2.B\	-cho-	ff	2.g/	-cho-	ff	2.gg\	-cho-	ff
8G\L 8g	.	.	.	.	.	.	.	.	.	.	.	.	.	.
8F#\J 8f#	.	.	.	.	.	.	.	.	.	.	.	.	.	.
4E\ 4e	4g\ 4b 4gg	>	.	.	.	.	.	.	.	.	.	.	.	.
4D\ 4d	4g\ 4b 4gg	]]	4D\	-wi	.	4d\	-wi	.	4a#X/	-wi	.	4gg\	-wi	.
=53	=53	=53	=53	=53	=53	=53	=53	=53	=53	=53	=53	=53	=53	=53
8C#\L 8c#	2a\ 2gg	<	4C#/	sła-	.	4e\	sła-	.	4a/	sła-	.	4gg\	sła-	.
8D\	.	.	.	.	.	.	.	.	.	.	.	.	.	.
8E\	.	.	4C#/	-wa	.	4e\	-wa	.	4a/	-wa	.	4gg\	-wa	.
8F#\J	.	.	.	.	.	.	.	.	.	.	.	.	.	.
8G\L	4a\ 4gg	.	4C#/	Woj-	.	4e\	Woj-	.	4a/	Woj-	.	4gg\	Woj-	.
8A\	.	.	.	.	.	.	.	.	.	.	.	.	.	.
8B\	4a\ 4gg	[[	4C#/	-cie-	.	4e\	-cie-	.	4a/	-cie-	.	4gg\	-cie-	.
8c#\J	.	.	.	.	.	.	.	.	.	.	.	.	.	.
=54	=54	=54	=54	=54	=54	=54	=54	=54	=54	=54	=54	=54	=54	=54
8A\L	4a\ 4cc# 4gg	.	2C#/	-cho-	.	4A/	-cho-	.	2ee\	-cho-	.	2gg\	-cho-	.
8B\	.	.	.	.	.	.	.	.	.	.	.	.	.	.
8c#\	8ff#\L	.	.	.	.	8B/L	.	.	.	.	.	.	.	.
8A\J	8ee\J	.	.	.	.	8c#/J	.	.	.	.	.	.	.	.
4d\	8a\L 8ff#	.	4D\	-wi!	.	4d\	-wi!	.	4dd\	-wi!	.	4ff#\	-wi!	.
.	8cc#\	.	.	.	.	.	.	.	.	.	.	.	.	.
4r	8dd\	.	4r	.	.	4r	.	.	4r	.	.	4r	.	.
.	8ee\J	.	.	.	.	.	.	.	.	.	.	.	.	.
=55	=55	=55	=55	=55	=55	=55	=55	=55	=55	=55	=55	=55	=55	=55
4FF#/ 4F#	4f#\ 4a#X 4ff#	<	1r	.	.	1r	.	.	1r	.	.	1r	.	.
!	!	!	!	!LO:LB:g=original	!	!	!LO:LB:g=original	!	!	!LO:LB:g=original	!	!	!LO:LB:g=original	!
8GG#X/L	4f#\ 4a# 4cc# 4ee	.	.	.	.	.	.	.	.	.	.	.	.	.
8AA#X/J	.	.	.	.	.	.	.	.	.	.	.	.	.	.
8BB/L	4f#\ 4a# 4cc# 4ee	.	.	.	.	.	.	.	.	.	.	.	.	.
8C#/	.	.	.	.	.	.	.	.	.	.	.	.	.	.
8D/	4f#\ 4a# 4cc# 4ee	[[	.	.	.	.	.	.	.	.	.	.	.	.
!	!LO:LB:g=original	!	!	!	!	!	!	!	!	!	!	!	!	!
8E/J	.	.	.	.	.	.	.	.	.	.	.	.	.	.
!LO:LB:g=original	!	!	!	!	!	!	!	!	!	!	!	!	!	!
=56	=56	=56	=56	=56	=56	=56	=56	=56	=56	=56	=56	=56	=56	=56
*	*^	*	*	*	*	*	*	*	*	*	*	*	*	*
*xywh-#36:321,1672,1939,448	*xywh-#36:321,1672,1939,448	*xywh-#36:321,1672,1939,448	*	*xywh-#36:365,1518,1877,266	*	*	*xywh-#36:318,1361,1946,273	*	*	*xywh-#36:362,1248,1892,263	*	*	*xywh-#36:305,1069,1936,291	*	*
2F#^\	4ee/	2f#\ 2a#X	.	2r	.	.	2r	.	.	2r	.	.	2r	.	.
.	8dd/L	.	.	.	.	.	.	.	.	.	.	.	.	.	.
.	8cc#/J	.	.	.	.	.	.	.	.	.	.	.	.	.	.
4BB\	4dd/	4f#\ 4b	.	4r	.	.	4r	.	.	4r	.	.	4r	.	.
8B\L	4dd#X/	4f#\ 4b	.	(8B\L	On	.	4B\	On	.	4f#/	On	.	4dd#X\	On	.
8An\J	.	.	.	8A\J)	.	.	.	.	.	.	.	.	.	.	.
*	*v	*v	*	*	*	*	*	*	*	*	*	*	*	*	*
=57	=57	=57	=57	=57	=57	=57	=57	=57	=57	=57	=57	=57	=57	=57
4G\	(8ee\L	.	4G\	Wia-	.	4B\	Wia-	.	4e/	Wia-	.	4ee\	Wia-	.
.	8b\	.	.	.	.	.	.	.	.	.	.	.	.	.
4F#\ 4d#X	8ff#\	.	4F#\	rą	.	4d#X\	-rą	.	4a/	-rą	.	4ff#\	-rą	.
.	8b\J	.	.	.	.	.	.	.	.	.	.	.	.	.
4E\ 4e	8gg\L	.	4E\	wscho-	.	4e\	wscho-	.	4b\	wscho-	.	4gg\	wscho-	.
.	8b\	.	.	.	.	.	.	.	.	.	.	.	.	.
4G\ 4e	8ee\	.	4G\	-dni	.	4e\	-dni	.	4b\	-dni	.	4ee\	-dni	.
.	8b\J)	.	.	.	.	.	.	.	.	.	.	.	.	.
=58	=58	=58	=58	=58	=58	=58	=58	=58	=58	=58	=58	=58	=58	=58
4A\	2e/ 2a 2cc#	.	4A\	świat	.	(2e\	świat	.	[2a/	świat	.	(2cc#\	świat	.
4G\	.	.	4G\	od-	.	.	.	.	.	.	.	.	.	.
4F#\	4d/ 4a 4dd	.	4F#\	-no-	.	4dn\)	.	.	4a/]	.	.	4dd\)	.	.
(8E\L	(8ee\L	.	(8E\L	-wi	.	(8c#\L	od-	.	4a/	od-	.	(8ee\L	od-	.
8D\J)	8ff#\J)	.	8D\J)	.	.	8d\J)	.	.	.	.	.	8ff#\J)	.	.
=59	=59	=59	=59	=59	=59	=59	=59	=59	=59	=59	=59	=59	=59	=59
4G\	2g/ 2b	.	4G\	świat	.	[2e\	-no-	.	[2g/	-no-	.	(2b\	-no-	.
4E\	.	.	4E\	od-	.	.	.	.	.	.	.	.	.	.
4A\	2e/ 2a 2cc#	.	2F#\	-no-	.	2e\]	.	.	2g/]	.	.	2cc#\)	.	.
4AA/	.	.	.	.	.	.	.	.	.	.	.	.	.	.
=60	=60	=60	=60	=60	=60	=60	=60	=60	=60	=60	=60	=60	=60	=60
2D\ 2F# 2A 2d	2f#/ 2a 2dd	.	2D\	-wi	.	2d\	-wi	.	2f#/	-wi	.	2dd\	-wi	.
2r	(8dd\L	.	2r	.	.	2r	.	.	2r	.	.	2r	.	.
.	8cc#\	.	.	.	.	.	.	.	.	.	.	.	.	.
.	8ee\	.	.	.	.	.	.	.	.	.	.	.	.	.
.	8dd\J)	.	.	.	.	.	.	.	.	.	.	.	.	.
=61	=61	=61	=61	=61	=61	=61	=61	=61	=61	=61	=61	=61	=61	=61
!	!	!	!	!	!	!	!	!	!	!	!	!LO:TX:a:t=piu lento	!	!
4DD/ 4D	(8dd\L	.	[2.D^\	Sła-	.	[2.c#^\	Sła-	.	[2.f#^/	Sła-	.	[2.dd^\	Sła-	.
!	!LO:TX:b:t=piu lento.	!	!	!	!	!	!	!	!	!	!	!	!	!
.	8cc#\	.	.	.	.	.	.	.	.	.	.	.	.	.
4r	8ee\	.	.	.	.	.	.	.	.	.	.	.	.	.
.	8dd\J)	.	.	.	.	.	.	.	.	.	.	.	.	.
2r	(8dd\L	.	.	.	.	.	.	.	.	.	.	.	.	.
.	8cc#\	.	.	.	.	.	.	.	.	.	.	.	.	.
.	8ee\	.	4D\]	.	.	4c#\]	-wa	.	4f#/]	.	.	4dd\]	.	.
!	!	!	!LO:LB:g=original	!	!	!LO:LB:g=original	!	!	!LO:LB:g=original	!	!	!LO:LB:g=original	!	!
.	8dd\J)	.	.	.	.	.	.	.	.	.	.	.	.	.
!	!LO:LB:g=original	!	!	!	!	!	!	!	!	!	!	!	!	!
=62	=62	=62	=62	=62	=62	=62	=62	=62	=62	=62	=62	=62	=62	=62
*xywh-#36:249,2566,2090,649	*xywh-#36:249,2566,2090,649	*	*xywh-#36:303,2466,1977,257	*	*	*xywh-#36:328,2309,1914,266	*	*	*xywh-#36:309,2183,1987,257	*	*	*xywh-#36:309,2014,1955,276	*	*
1D 1F# 1A 1cn	(8dd\L	.	1D	-wa	.	1A	Woj-	.	1f#	-wa	.	1dd	-wa	.
!LO:LB:g=original	!	!	!	!	!	!	!	!	!	!	!	!	!	!
.	8cc#\	.	.	.	.	.	.	.	.	.	.	.	.	.
.	8ee\	.	.	.	.	.	.	.	.	.	.	.	.	.
.	8dd\J)	.	.	.	.	.	.	.	.	.	.	.	.	.
.	(8dd\L	.	.	.	.	.	.	.	.	.	.	.	.	.
.	8cc#\	.	.	.	.	.	.	.	.	.	.	.	.	.
.	8ee\	.	.	.	.	.	.	.	.	.	.	.	.	.
.	8dd\J)	.	.	.	.	.	.	.	.	.	.	.	.	.
=63	=63	=63	=63	=63	=63	=63	=63	=63	=63	=63	=63	=63	=63	=63
!	!	!	!	!	!LO:DY:a	!	!	!LO:DY:a	!	!	!LO:DY:a	!	!	!LO:DY:a
1D 1G 1B	8dd\L	<	2.D\	Woj-	<	2.B\	-cie-	<	2.g/	Woj-	<	2.dd\	Woj-	<
.	8ee\	.	.	.	.	.	.	.	.	.	.	.	.	.
.	8ff#\	.	.	.	.	.	.	.	.	.	.	.	.	.
.	8gg\J	.	.	.	.	.	.	.	.	.	.	.	.	.
.	8aa\L	.	.	.	.	.	.	.	.	.	.	.	.	.
.	8bb\	.	.	.	.	.	.	.	.	.	.	.	.	.
!	!	!	!	!	!LO:DY:a	!	!	!LO:DY:a	!	!	!LO:DY:a	!	!	!LO:DY:a
.	8ccc#\	.	4D\	-cie-	[ > ]]	4B\	-cho-	[ > ]]	4g/	-cie-	[ > ]]	4dd\	-cie-	[ > ]]
.	8ddd\J	[[	.	.	.	.	.	.	.	.	.	.	.	.
=64	=64	=64	=64	=64	=64	=64	=64	=64	=64	=64	=64	=64	=64	=64
1D 1G 1B-X 1c#	8eee\L	sf >	1D	-cho-	.	1B-X	-wi!	.	1g	-cho-	.	1ee	-cho-	.
.	8ccc#\	.	.	.	.	.	.	.	.	.	.	.	.	.
.	8bb-X\	.	.	.	.	.	.	.	.	.	.	.	.	.
.	8gg\J	.	.	.	.	.	.	.	.	.	.	.	.	.
.	8ee\L	.	.	.	.	.	.	.	.	.	.	.	.	.
.	8cc#\	.	.	.	.	.	.	.	.	.	.	.	.	.
.	8b\	.	.	.	.	.	.	.	.	.	.	.	.	.
.	8g\J	]]	.	.	.	.	.	.	.	.	.	.	.	.
=65	=65	=65	=65	=65	=65	=65	=65	=65	=65	=65	=65	=65	=65	=65
*^	*	*	*	*	*	*	*	*	*	*	*	*	*	*
*xywh-#36:249,2566,2090,649	*xywh-#36:249,2566,2090,649	*xywh-#36:249,2566,2090,649	*	*	*	*	*	*	*	*	*	*	*	*	*
4D/ 4d	[1DD	2f#\ 2a 2dd	<	2D\	-wi!	.	2A/	.	.	2g/	-wi!	.	2dd\	-wi!	.
8F#/L	.	.	.	.	.	.	.	.	.	.	.	.	.	.	.
8A/J	.	.	.	.	.	.	.	.	.	.	.	.	.	.	.
4d/	.	2r	[[	2r	.	.	2r	.	.	2r	.	.	2r	.	.
4c#/	.	.	.	.	.	.	.	.	.	.	.	.	.	.	.
=66	=66	=66	=66	=66	=66	=66	=66	=66	=66	=66	=66	=66	=66	=66	=66
4d/	1DD_	2r	.	1r	.	.	1r	.	.	1r	.	.	1r	.	.
4e/	.	.	.	.	.	.	.	.	.	.	.	.	.	.	.
4.d/ 4.f#	.	4.a\ 4.dd	.	.	.	.	.	.	.	.	.	.	.	.	.
8d/ 8f#	.	8a\ 8dd	.	.	.	.	.	.	.	.	.	.	.	.	.
=67	=67	=67	=67	=67	=67	=67	=67	=67	=67	=67	=67	=67	=67	=67	=67
1d; 1f#	1DD]	1a; 1dd	.	1r;	.	.	1r;	.	.	1r;	.	.	1r;	.	.
*v	*v	*	*	*	*	*	*	*	*	*	*	*	*	*	*
==	==	==	==	==	==	==	==	==	==	==	==	==	==	==
*-	*-	*-	*-	*-	*-	*-	*-	*-	*-	*-	*-	*-	*-	*-
!!!system-decoration: [(s1,s2,s3,s4)][(s5,s6)]
!!!ENC: Berenika Jozajtis
!!!END: 2022-02-22
!!!ENC: Julita Ruszuk
!!!END: 2022-02-28
!!!ENC-iiif: Bartosz Żurakowski
!!!END-iiif: 2022-09-22
